images/logo.svg

<svg width="270" height="70" viewBox="0 0 270 70" fill="none" xmlns="http://www.w3.org/2000/svg">
<g clip-path="url(#clip0_4469_32)">
<path d="M0.320312 69.0001H4.26918V64.6819H6.45668C9.77344 64.6819 11.9964 62.7288 11.9964 59.5967C11.9964 56.5001 9.83026 54.4546 6.59872 54.4546H0.320312V69.0001ZM4.26918 61.6137V57.608H5.66122C7.04617 57.608 7.87713 58.3467 7.87713 59.5967C7.87713 60.8396 7.04617 61.6137 5.66122 61.6137H4.26918Z" fill="white"/>
<path d="M13.4453 69.0001H17.3942V64.1989H18.7578L21.3146 69.0001H25.6044L22.6499 63.5739C24.1982 62.8282 25.1214 61.4149 25.1214 59.3978C25.1214 56.3012 22.9553 54.4546 19.7237 54.4546H13.4453V69.0001ZM17.3942 61.1308V57.608H18.7862C20.1712 57.608 21.0021 58.1478 21.0021 59.3978C21.0021 60.6407 20.1712 61.1308 18.7862 61.1308H17.3942Z" fill="white"/>
<path d="M30.5832 69.0001L31.4213 66.216H36.2224L37.0605 69.0001H41.3218L36.5207 54.4546H31.123L26.3218 69.0001H30.5832ZM32.3162 63.2614L33.765 58.4603H33.8787L35.3275 63.2614H32.3162Z" fill="white"/>
<path d="M55.6188 59.9093C55.3063 56.3013 52.6643 54.2559 48.9995 54.2559C45.079 54.2559 41.9824 56.8695 41.9824 61.7275C41.9824 66.5641 44.9938 69.199 48.9995 69.199C53.2609 69.199 55.4199 66.2445 55.6188 63.7729L51.6131 63.7445C51.4143 64.9874 50.5336 65.7615 49.0847 65.7615C47.16 65.7615 46.0449 64.3979 46.0449 61.7275C46.0449 59.199 47.1245 57.6934 49.1131 57.6934C50.633 57.6934 51.4995 58.5882 51.6131 59.9093H55.6188Z" fill="white"/>
<path d="M57.0122 57.6364H61.3872V69.0001H65.2793V57.6364H69.6543V54.4546H57.0122V57.6364Z" fill="white"/>
<path d="M75.0895 54.4546H71.1406V69.0001H75.0895V54.4546Z" fill="white"/>
<path d="M90.5407 59.9093C90.2282 56.3013 87.5861 54.2559 83.9214 54.2559C80.0009 54.2559 76.9043 56.8695 76.9043 61.7275C76.9043 66.5641 79.9157 69.199 83.9214 69.199C88.1827 69.199 90.3418 66.2445 90.5407 63.7729L86.535 63.7445C86.3361 64.9874 85.4555 65.7615 84.0066 65.7615C82.0819 65.7615 80.9668 64.3979 80.9668 61.7275C80.9668 59.199 82.0464 57.6934 84.035 57.6934C85.5549 57.6934 86.4214 58.5882 86.535 59.9093H90.5407Z" fill="white"/>
<path d="M100.94 54.4546V63.4319C100.94 64.7884 99.967 65.7614 98.6104 65.7614C97.2539 65.7614 96.2809 64.7884 96.2809 63.4319V54.4546H92.332V63.7728C92.332 67.0967 94.8462 69.1705 98.6104 69.1705C102.346 69.1705 104.889 67.0967 104.889 63.7728V54.4546H100.94Z" fill="white"/>
<path d="M106.766 54.4546V69.0001H110.629V60.5342H110.743L113.982 68.8864H116.311L119.55 60.591H119.663V69.0001H123.527V54.4546H118.612L115.232 62.6933H115.061L111.68 54.4546H106.766Z" fill="white"/>
<path d="M133.161 69.0001L133.999 66.216H138.8L139.638 69.0001H143.9L139.099 54.4546H133.701L128.9 69.0001H133.161ZM134.894 63.2614L136.343 58.4603H136.457L137.906 63.2614H134.894Z" fill="white"/>
<path d="M145.301 69.0001H149.25V64.1989H150.613L153.17 69.0001H157.46L154.505 63.5739C156.054 62.8282 156.977 61.4149 156.977 59.3978C156.977 56.3012 154.811 54.4546 151.579 54.4546H145.301V69.0001ZM149.25 61.1308V57.608H150.642C152.027 57.608 152.858 58.1478 152.858 59.3978C152.858 60.6407 152.027 61.1308 150.642 61.1308H149.25Z" fill="white"/>
<path d="M158.262 57.6364H162.637V69.0001H166.529V57.6364H170.904V54.4546H158.262V57.6364Z" fill="white"/>
<path d="M185.821 59.2559H189.812C189.507 56.3368 186.858 54.2559 183.42 54.2559C179.5 54.2559 176.318 56.9547 176.318 61.7559C176.318 66.3581 179.202 69.199 183.449 69.199C187.256 69.199 189.983 66.8695 189.983 62.8922V60.8752H183.534V63.6877H186.176C186.141 64.9519 185.246 65.7615 183.477 65.7615C181.432 65.7615 180.381 64.2559 180.381 61.699C180.381 59.1777 181.517 57.6934 183.506 57.6934C184.741 57.6934 185.58 58.2615 185.821 59.2559Z" fill="white"/>
<path d="M195.153 69.0001L195.991 66.216H200.793L201.631 69.0001H205.892L201.091 54.4546H195.693L190.892 69.0001H195.153ZM196.886 63.2614L198.335 58.4603H198.449L199.898 63.2614H196.886Z" fill="white"/>
<path d="M207.293 69.0001H217.123V65.8183H211.242V54.4546H207.293V69.0001Z" fill="white"/>
<path d="M218.719 69.0001H228.548V65.8183H222.668V54.4546H218.719V69.0001Z" fill="white"/>
<path d="M230.145 69.0001H240.599V65.8183H234.093V63.3183H240.088V60.1364H234.093V57.6364H240.627V54.4546H230.145V69.0001Z" fill="white"/>
<path d="M242.586 69.0001H246.535V64.1989H247.898L250.455 69.0001H254.745L251.79 63.5739C253.339 62.8282 254.262 61.4149 254.262 59.3978C254.262 56.3012 252.096 54.4546 248.864 54.4546H242.586V69.0001ZM246.535 61.1308V57.608H247.927C249.312 57.608 250.143 58.1478 250.143 59.3978C250.143 60.6407 249.312 61.1308 247.927 61.1308H246.535Z" fill="white"/>
<path d="M254.665 54.4546L260.006 64.4262V69.0001H263.926V64.4262L269.267 54.4546H264.864L262.023 60.3637H261.909L259.069 54.4546H254.665Z" fill="white"/>
<path d="M118 2C118 0.895431 118.895 0 120 0H148C149.105 0 150 0.895431 150 2V30C150 31.1046 149.105 32 148 32H120C118.895 32 118 31.1046 118 30V2Z" fill="#0278FE"/>
<path d="M150 6H118V8H150V6Z" fill="#2A2C2F"/>
<path d="M131 6H129V32H131V6Z" fill="#2A2C2F"/>
</g>
<defs>
<clipPath id="clip0_4469_32">
<rect width="270" height="70" fill="white"/>
</clipPath>
</defs>
</svg>

<svg xmlns="http://www.w3.org/2000/svg" width="270" height="70" fill="none"><g clip-path="url(#a)"><path fill="#fff" d="M.32 69h3.95v-4.318h2.187c3.316 0 5.54-1.953 5.54-5.085 0-3.097-2.167-5.142-5.398-5.142H.32V69Zm3.95-7.386v-4.006H5.66c1.385 0 2.216.739 2.216 1.989 0 1.243-.83 2.017-2.216 2.017H4.27ZM13.445 69h3.95V64.2h1.363L21.315 69h4.29l-2.955-5.426c1.548-.746 2.471-2.16 2.471-4.176 0-3.097-2.166-4.943-5.397-4.943h-6.279V69Zm3.95-7.87v-3.522h1.391c1.385 0 2.216.54 2.216 1.79 0 1.243-.83 1.733-2.216 1.733h-1.392ZM30.583 69l.838-2.784h4.801L37.06 69h4.262L36.52 54.455h-5.398L26.322 69h4.261Zm1.733-5.739 1.449-4.8h.114l1.449 4.8h-3.012ZM55.619 59.91c-.313-3.609-2.955-5.654-6.62-5.654-3.92 0-7.017 2.614-7.017 7.471 0 4.837 3.012 7.472 7.017 7.472 4.262 0 6.42-2.954 6.62-5.426l-4.006-.029c-.199 1.243-1.08 2.017-2.528 2.017-1.925 0-3.04-1.363-3.04-4.033 0-2.529 1.08-4.035 3.068-4.035 1.52 0 2.386.895 2.5 2.216h4.006ZM57.012 57.636h4.375V69h3.892V57.636h4.375v-3.181H57.012v3.181ZM75.09 54.455h-3.95V69h3.95V54.455ZM90.54 59.91c-.312-3.609-2.954-5.654-6.619-5.654-3.92 0-7.017 2.614-7.017 7.471 0 4.837 3.012 7.472 7.017 7.472 4.262 0 6.42-2.954 6.62-5.426l-4.006-.029c-.199 1.243-1.08 2.017-2.528 2.017-1.925 0-3.04-1.363-3.04-4.033 0-2.529 1.08-4.035 3.068-4.035 1.52 0 2.386.895 2.5 2.216h4.006ZM100.94 54.455v8.977c0 1.356-.973 2.33-2.33 2.33-1.356 0-2.33-.974-2.33-2.33v-8.977h-3.948v9.318c0 3.324 2.514 5.398 6.278 5.398 3.736 0 6.279-2.074 6.279-5.398v-9.318h-3.949ZM106.766 54.455V69h3.863v-8.466h.114l3.239 8.352h2.329l3.239-8.295h.113v8.41h3.864V54.454h-4.915l-3.38 8.238h-.171l-3.381-8.238h-4.914ZM133.161 69l.838-2.784h4.801l.838 2.784h4.262l-4.801-14.545h-5.398L128.9 69h4.261Zm1.733-5.739 1.449-4.8h.114l1.449 4.8h-3.012ZM145.301 69h3.949V64.2h1.363L153.17 69h4.29l-2.955-5.426c1.549-.746 2.472-2.16 2.472-4.176 0-3.097-2.166-4.943-5.398-4.943h-6.278V69Zm3.949-7.87v-3.522h1.392c1.385 0 2.216.54 2.216 1.79 0 1.243-.831 1.733-2.216 1.733h-1.392ZM158.262 57.636h4.375V69h3.892V57.636h4.375v-3.181h-12.642v3.181ZM185.821 59.256h3.991c-.305-2.92-2.954-5-6.392-5-3.92 0-7.102 2.699-7.102 7.5 0 4.602 2.884 7.443 7.131 7.443 3.807 0 6.534-2.33 6.534-6.307v-2.017h-6.449v2.813h2.642c-.035 1.264-.93 2.073-2.699 2.073-2.045 0-3.096-1.505-3.096-4.062 0-2.521 1.136-4.006 3.125-4.006 1.235 0 2.074.569 2.315 1.563ZM195.153 69l.838-2.784h4.802l.838 2.784h4.261l-4.801-14.545h-5.398L190.892 69h4.261Zm1.733-5.739 1.449-4.8h.114l1.449 4.8h-3.012ZM207.293 69h9.83v-3.182h-5.881V54.455h-3.949V69ZM218.719 69h9.829v-3.182h-5.88V54.455h-3.949V69ZM230.145 69h10.454v-3.182h-6.506v-2.5h5.995v-3.182h-5.995v-2.5h6.534v-3.181h-10.482V69ZM242.586 69h3.949V64.2h1.363L250.455 69h4.29l-2.955-5.426c1.549-.746 2.472-2.16 2.472-4.176 0-3.097-2.166-4.943-5.398-4.943h-6.278V69Zm3.949-7.87v-3.522h1.392c1.385 0 2.216.54 2.216 1.79 0 1.243-.831 1.733-2.216 1.733h-1.392ZM254.665 54.455l5.341 9.971V69h3.92v-4.574l5.341-9.971h-4.403l-2.841 5.909h-.114l-2.84-5.91h-4.404Z"/><path fill="#0278FE" d="M118 2a2 2 0 0 1 2-2h28a2 2 0 0 1 2 2v28a2 2 0 0 1-2 2h-28a2 2 0 0 1-2-2V2Z"/><path fill="#2A2C2F" d="M150 6h-32v2h32V6Z"/><path fill="#2A2C2F" d="M131 6h-2v26h2V6Z"/></g><defs><clipPath id="a"><path fill="#fff" d="M0 0h270v70H0z"/></clipPath></defs></svg>
